!!!COM: Palestrina, Giovanni Perluigi da
!!!OPR: Missa Memor esto
!!!OMD: Credo
!!!OTL: Crucifixus
**kern	**kern	**kern	**kern
*Itenor	*Itenor	*Icalto	*Icant
!Tenor 2	!Tenor 1	!Altus	!Cantus
*clefGv2	*clefGv2	*clefG2	*clefG2
*k[b-]	*k[b-]	*k[b-]	*k[b-]
*G:dor	*G:dor	*G:dor	*G:dor
*M4/2	*M4/2	*M4/2	*M4/2
=74	=74	=74	=74
1.G	1.g	1.b-	1.dd
2G	2g	2b-	2dd
=75	=75	=75	=75
1d	1f	1a	1dd
1A	1e	1a	1cc
=76	=76	=76	=76
2.a	1.d	2r	2.ff
.	.	1a	.
4g	.	.	4ee
2f	.	.	2dd
2e	2e	2g	2cc
=77	=77	=77	=77
2d	2f#	2a	2dd
2d	2f#	2a	2a
1G	2g	1g	1b-
.	[2d	.	.
=78	=78	=78	=78
1d	2d]	2f	2.a
.	2f	2a	.
.	.	.	4b-
1r	2f	2a	1cc
.	2e	2g	.
=79	=79	=79	=79
1r	2d	2f	1r
.	2c	2e	.
1a	1d	4f	2r
.	.	4g	.
.	.	4a	2ff
.	.	4b-	.
=80	=80	=80	=80
2a	1c	2.cc	2ff
2g	.	.	2ee
.	.	4b-	.
2f	1r	4a	2dd
.	.	4f	.
2e	.	2g	2cc
=81	=81	=81	=81
2d	2r	2a	1dd
2d	1f	1d	.
1r	.	.	[1a
.	2e	2c#	.
=82	=82	=82	=82
1r	2d	2d	1a]
.	2c#	2e	.
2r	1d	2.f	2r
[2f	.	.	[2dd
.	.	4g	.
=83	=83	=83	=83
2f]	1A	0a	2dd]
2e	.	.	2cc#
2d	2f	.	2dd
2c#	2e	.	2ee
=84	=84	=84	=84
1d	4d	0a	2ff
.	4e	.	.
.	4f	.	2.dd
.	4d	.	.
1A	2e	.	.
.	.	.	4cc#
.	2e	.	2cc#
=85	=85	=85	=85
1d	1f#	1a	1dd
2r	2r	2r	2r
2G	2g	2b-	2dd
=86	=86	=86	=86
2d	2f	2a	2dd
2g	2g	2b-	2dd
1f	1a	1cc	1ff
=87	=87	=87	=87
2c	2g	2cc	2ee
2.d	2.f	2.a	2.dd
4d	4f	4a	4dd
2B-	2d	2g	2dd
=88	=88	=88	=88
1A	1e	1a	1cc
1G	2g	2d	2b
.	2g	2g	2b
=89	=89	=89	=89
0r	2f	2a	2cc
.	2d	2.b-	2dd
.	1e-	.	4g
.	.	4a	4a
.	.	2g	4b-
.	.	.	4cc
=90	=90	=90	=90
0r	1d	2.f	4dd
.	.	.	4ee
.	.	.	2.ff
.	.	4g	.
.	4d	2a	.
.	4c	.	4ee
.	4B-	[2b-	4dd
.	4A	.	4cc
=91	=91	=91	=91
2r	1G	4b-]	4dd
.	.	4a	4cc
2B-	.	2.g	2b-
2c	1r	.	1a
.	.	8f	.
.	.	8e	.
2d	.	4f	.
.	.	8g	.
.	.	8a	.
=92	=92	=92	=92
4G	1r	0b-	0dd
4A	.	.	.
4B-	.	.	.
4c	.	.	.
4d	1B-	.	.
4e	.	.	.
4f	.	.	.
4d	.	.	.
=93	=93	=93	=93
2e	2c	1a	0r
2f	2d	.	.
4e	2G	4g	.
4d	.	4f	.
[2d	2B-	4e	.
.	.	4d	.
=94	=94	=94	=94
2d]	1A	2e	2r
2c#	.	2a	2ee
1d	1r	2a	2ff
.	.	2b-	2dd
=95	=95	=95	=95
0r	0r	2cc	2ee
.	.	2a	2ff
.	.	4g	2.gg
.	.	8a	.
.	.	8b-	.
.	.	[2cc	.
.	.	.	4ff
=96	=96	=96	=96
2r	2r	4cc]	4ee
.	.	4b-	4dd
2A	2e	1a	1cc
2A	2f	.	.
2B-	2d	4g	4b-
.	.	4f	4a
=97	=97	=97	=97
2c	2e	4e	2g
.	.	4d	.
2A	2f	2c	2a
1G	1g	1d	1b-
=98	=98	=98	=98
1d	1f#	1r	2a
.	.	.	1a
1d	1r	1f#	.
.	.	.	2b-
=99	=99	=99	=99
2e	0r	2g	2cc
2f	.	2a	2.dd
2.g	.	2.b-	.
.	.	.	4cc
.	.	.	2b-
4f	.	4a	.
=100	=100	=100	=100
2e	0r	2g	1cc
2.f	.	2.a	.
.	.	.	1a
4e	.	4g	.
4d	.	4f	.
4c	.	4e	.
=101	=101	=101	=101
1B-	1d	2.f	2r
.	.	.	2dd
.	.	4g	.
1A	2e	1a	2cc
.	2f	.	2a
=102	=102	=102	=102
1G	2.g	2d	2b-
.	.	1g	2b-
.	4f	.	.
1r	2e	.	1cc
.	[2f	2a	.
=103	=103	=103	=103
0r	4f]	2a	2.ff
.	4e	.	.
.	4d	2.b-	.
.	4c	.	4ee
.	1B-	.	4dd
.	.	4a	4cc
.	.	[2g	4dd
.	.	.	4b-
=104	=104	=104	=104
1r	1A	2g]	1cc
.	.	2f#	.
2r	1G	2g	2b-
2G	.	2d	2b-
=105	=105	=105	=105
2.d	0r	2.f	2.a
4d	.	4f	4a
2d	.	2f	2b-
2e	.	2g	2cc
=106	=106	=106	=106
2f	2r	2a	2dd
1g	2G	2b-	2dd
.	2.d	[1a	1dd
[2f	.	.	.
.	4d	.	.
=107	=107	=107	=107
4f]	2d	1a]	1r
8e	.	.	.
8d	.	.	.
2c	2e	.	.
1d	2f#	2r	1a
.	2f#	2a	.
=108	=108	=108	=108
1G	1g	2.b-	2.dd
.	.	4b-	4dd
1r	1G	2b-	2dd
.	.	2g	2ee
=109	=109	=109	=109
0r	2.d	1a	2ff
.	.	.	1ff
.	4d	.	.
.	2d	1b-	.
.	2e	.	4ee
.	.	.	4dd
=110	=110	=110	=110
1r	1f	2a	2.cc
.	.	1cc	.
.	.	.	4dd
2r	1g	.	2ee-
2G	.	[2b-	[2dd
=111	=111	=111	=111
2.d	1f	2b-]	4dd]
.	.	.	4cc
.	.	2.a	2a
4d	.	.	.
2d	1r	.	1b-
.	.	8g	.
.	.	8f	.
2e	.	2g	.
=112	=112	=112	=112
1f	2r	1a	2a
.	2d	.	2ff
1g	2B-	1r	2dd
.	2c	.	2ee
=113	=113	=113	=113
1f	4d	1r	4ff
.	4c	.	4ee
.	4B-	.	4dd
.	4A	.	4cc
1r	2G	2r	2b-
.	2A	2a	2cc
=114	=114	=114	=114
1r	2.B-	2f	2.dd
.	.	2g	.
.	8A	.	4ee
.	8G	.	.
2r	1d	4a	2ff
.	.	4g	.
2d	.	4f	[2dd
.	.	4e	.
=115	=115	=115	=115
2B-	0r	2d	2dd]
2c	.	2e	4cc
.	.	.	4b-
4d	.	1f	2a
4c	.	.	.
4B-	.	.	[2dd
4A	.	.	.
=116	=116	=116	=116
2G	1r	1e	2dd]
2A	.	.	2cc#
2B-	2r	2d	2dd
[2G	[2d	[2g	[2b-
=117	=117	=117	=117
2G]	2d]	2g]	2b-]
2d	2d	2f	2a
1c	1e	2.g	1cc
.	.	4a	.
=118	=118	=118	=118
2.B-	2f	1b-	0dd
.	1g	.	.
4c	.	.	.
1d	.	1a	.
.	[2f	.	.
=119	=119	=119	=119
1c	2f]	1cc	2r
.	2e	.	1gg
1r	2.d	2b-	.
.	.	2a	[2ff
.	4c	.	.
=120	=120	=120	=120
0r	2B-	2.g	2ff]
.	2c	.	2ee
.	.	4a	.
.	2G	2b-	2.dd
.	2d	[2a	.
.	.	.	4cc
=121	=121	=121	=121
0r	2e-	4a]	2b-
.	.	4g	.
.	2c	1g	2cc
.	1d	.	1a
.	.	2f#	.
=122	=122	=122	=122
2r	1G	2g	1g
1g	.	1b-	.
.	1r	.	1dd
[2f	.	[2a	.
=123	=123	=123	=123
2f]	2r	2a]	1cc
2e	1g	2g	.
2.d	.	2b-	2dd
.	[2f	[2a	[2dd
4c	.	.	.
=124	=124	=124	=124
2B-	2f]	2a]	2dd]
2c	2e	1g	4cc
.	.	.	4b
1A	1c	.	1cc
.	.	2f#	.
=125	=125	=125	=125
0G	0d	0g	0b
*-	*-	*-	*-
!!!CDT: 1525/^1526/-1594/2/2
!!!OCY: Italia
!!!AGN: Mass (Parody)
!!!AST: renaissance, vocal
!!!ASW: Motet 1572 (Palestrina)
!!!PWK: Masses, Book 8
!!!RNB: Cadence finals: A,D
!!!YOR: Le Opere Complete, v. 24, p. 86
!!!YOO: Rome, Italy: Fratelli Scalera
!!!END: 1992//
!!!EED: John Miller
!!!YEC: Copyright 2000, John Miller
!!!YEN: United States of America
!!!YEM: Rights to all derivative electronic formats reserved.
!!!YEM: Refer to licensing agreement for further details.
!!!YEM: This file must be accompanied by the licensing agreement.
!!!YEM: A copy of the licensing agreement may be found at http://www.music-cog.ohio-state.edu/HumdrumDatabases/Palestrina/license.txt
!!!EMD: converted to Humdrum by Bret Aarden
